public/handshake.svg

<svg stroke="#f5c800" fill="#f5c800" stroke-width="0" viewBox="0 0 640 512" height="200px" width="200px" xmlns="http://www.w3.org/2000/svg"><path d="M434.7 64h-85.9c-8 0-15.7 3-21.6 8.4l-98.3 90c-.1.1-.2.3-.3.4-16.6 15.6-16.3 40.5-2.1 56 12.7 13.9 39.4 17.6 56.1 2.7.1-.1.3-.1.4-.2l79.9-73.2c6.5-5.9 16.7-5.5 22.6 1 6 6.5 5.5 16.6-1 22.6l-26.1 23.9L504 313.8c2.9 2.4 5.5 5 7.9 7.7V128l-54.6-54.6c-5.9-6-14.1-9.4-22.6-9.4zM544 128.2v223.9c0 17.7 14.3 32 32 32h64V128.2h-96zm48 223.9c-8.8 0-16-7.2-16-16s7.2-16 16-16 16 7.2 16 16-7.2 16-16 16zM0 384h64c17.7 0 32-14.3 32-32V128.2H0V384zm48-63.9c8.8 0 16 7.2 16 16s-7.2 16-16 16-16-7.2-16-16c0-8.9 7.2-16 16-16zm435.9 18.6L334.6 217.5l-30 27.5c-29.7 27.1-75.2 24.5-101.7-4.4-26.9-29.4-24.8-74.9 4.4-101.7L289.1 64h-83.8c-8.5 0-16.6 3.4-22.6 9.4L128 128v223.9h18.3l90.5 81.9c27.4 22.3 67.7 18.1 90-9.3l.2-.2 17.9 15.5c15.9 13 39.4 10.5 52.3-5.4l31.4-38.6 5.4 4.4c13.7 11.1 33.9 9.1 45-4.7l9.5-11.7c11.2-13.8 9.1-33.9-4.6-45.1z"></path></svg>

<?xml version="1.0" encoding="UTF-8" standalone="no"?>
<!DOCTYPE svg PUBLIC "-//W3C//DTD SVG 1.1//EN" "http://www.w3.org/Graphics/SVG/1.1/DTD/svg11.dtd">
<svg width="100%" height="100%" viewBox="0 0 200 200" version="1.1" xmlns="http://www.w3.org/2000/svg" xmlns:xlink="http://www.w3.org/1999/xlink" xml:space="preserve" xmlns:serif="http://www.serif.com/" style="fill-rule:evenodd;clip-rule:evenodd;stroke-linejoin:round;stroke-miterlimit:2;">
    <g transform="matrix(0.3125,0,0,0.3125,0,20)">
        <path d="M434.7,64L348.8,64C340.8,64 333.1,67 327.2,72.4L228.9,162.4C228.8,162.5 228.7,162.7 228.6,162.8C212,178.4 212.3,203.3 226.5,218.8C239.2,232.7 265.9,236.4 282.6,221.5C282.7,221.4 282.9,221.4 283,221.3L362.9,148.1C369.4,142.2 379.6,142.6 385.5,149.1C391.5,155.6 391,165.7 384.5,171.7L358.4,195.6L504,313.8C506.9,316.2 509.5,318.8 511.9,321.5L511.9,128L457.3,73.4C451.4,67.4 443.2,64 434.7,64ZM544,128.2L544,352.1C544,369.8 558.3,384.1 576,384.1L640,384.1L640,128.2L544,128.2ZM592,352.1C583.2,352.1 576,344.9 576,336.1C576,327.3 583.2,320.1 592,320.1C600.8,320.1 608,327.3 608,336.1C608,344.9 600.8,352.1 592,352.1ZM0,384L64,384C81.7,384 96,369.7 96,352L96,128.2L0,128.2L0,384ZM48,320.1C56.8,320.1 64,327.3 64,336.1C64,344.9 56.8,352.1 48,352.1C39.2,352.1 32,344.9 32,336.1C32,327.2 39.2,320.1 48,320.1ZM483.9,338.7L334.6,217.5L304.6,245C274.9,272.1 229.4,269.5 202.9,240.6C176,211.2 178.1,165.7 207.3,138.9L289.1,64L205.3,64C196.8,64 188.7,67.4 182.7,73.4L128,128L128,351.9L146.3,351.9L236.8,433.8C264.2,456.1 304.5,451.9 326.8,424.5L327,424.3L344.9,439.8C360.8,452.8 384.3,450.3 397.2,434.4L428.6,395.8L434,400.2C447.7,411.3 467.9,409.3 479,395.5L488.5,383.8C499.7,370 497.6,349.9 483.9,338.7Z" style="fill:rgb(94,245,0);fill-rule:nonzero;"/>
    </g>
</svg>
